X:25
T:Paddy Carthy's Reel
T:Man of the House
M:C
K:E Dorian
L:1/8
"Em"E2 BE "G"GABG|"Em"E2 BG "D"FDAF|"Em"E2 BE "G"GABe|1 "D"dBBA "Em"BEED:|2 "D"dBBA "Em"BE E2|!
"Em"efge "D"fgaf|"C"gfed "Bm"edBd|"Em"efge "D"fgaf|"C"gfed "Em"Be e2|!
"Em"efge "D"fgaf|"C"gfed "Bm"edBd|"G"bgaf "D"gefd|"C"edBA "Em"GE E2|]
"Bm"B e d/2e/2|"Em"B A B/2A/2|"C"G E "D"D|"Em"E2z/2:|
%%stretchlast

